X: 785
T: Peeler Creek
B: jims roots
M:3/4
L:1/8
R: mazurka
Q: 1/4=100
K:Gmaj
V:1 
(3DEF |:"G"G2 GA Bc | d2 B2 cB | "D"AB AG EF | "G"GA GE [G,D]E/F/|
"G"G2 GA Bc | d2 B2 cB | "D"AB AG EF | [1 "G"G4 (3DEF:|[2 "G"G4 (3Bcd||
|:"Em"e2 ef gf | ef ed (3Bcd | e2 ef ga | "B7"b2 (3aba gf | "Em"e2 ef gf |
ef ed B2 | "D"AB AG EF | [1,3 "G"[G4B,] (3Bcd:| [2 "G"[G4B,] (3DEF||[4 "G"[G6B,]|]
% abcbook-tune_id 6298c2799a20812aafdb1bf3


% abcbook-boost 0
% abcbook-tablature 
% abcbook-transpose 
% abcbook-lastupdated 1654178426447
% abcbook-soundfonts 
% abcbook-repeats 1


